!!!!SEGMENT: pl-gd--ee-1638--004-020_virchi-paolo--il-primo-libro-de-madrigali-a-cinque-voci-o-solitari-colli-o-verde-riva.krn
!!!cenid: 15xx:952
!!!COM: Marenzio, Luca
!!!COM-rismID: pe30003955
!!!CDT: ~1553-1599/08/22
!!!CNT: Italian
!!!GTL: Il Primo libro de madrigali a cinque voci
!!!OTL: O solitari colli o verde riva
!!!OMV: 020
!!!PDT: 1584
!!!AGN:
!!!SMS-siglum: PL-GD
!!!SMS-shelfmark: Ee 1638
!!!SMS-variant:
!!!SMS-altvar:
!!!SMS-shelfwork: 004-020 G
!!!NIFC-rismSourceID: 1001202747
!!!NIFC-rismChildID: 990067088
!!!NIFC-islandoraID: pl-gd:57883
!!!URL-pdf-islandora: https://repozytorium.nifc.pl/islandora/object/pl-gd%3A57883/datastream/PDF/view
!!!URL-scan: https://polish.musicsources.pl/pl/lokalizacje/galeria/klocki-introligatorskie/655 @EN{Scan on Polish Music Sources Website} @PL{Skany w portalu Dziedzictwo Muzyki Polskiej w otwartym dostępie}
!!!IIIF: https://repozytorium.nifc.pl/islandora/object/plgd%3A57883/datastream/IIIF/view
!!!ONB-nifc: UWAGA: zbiór na stronach: Canto: s. 654-665, Alto: s. 502-513, Tenore: s. 350-361, Bassus: s. 198-210, Quinto: s. 46-57. Uwaga: utwory podzielone wg tytułów w spisach treści dostępnych na końcu każdej księgi głosowej.
!!!AIN: 2 alto 1 bass 1 soprn 1 tenor
!!!key: g:aeo
**kern	**text	**kern	**text	**kern	**text	**kern	**text	**kern	**text
*part5	*part5	*part4	*part4	*part3	*part3	*part2	*part2	*part1	*part1
*staff5	*staff5	*staff4	*staff4	*staff3	*staff3	*staff2	*staff2	*staff1	*staff1
*I"BASSO	*	*I"TENORE 	*	*I"QVINTO 	*	*I"ALTO	*	*I"CANTO	*
*mI"Basso	*	*mI"Tenore	*	*mI"Quinto	*	*mI"Alto	*	*mI"Soprano	*
*I'B	*	*I'T	*	*I'V 5	*	*I'A	*	*I'S	*
*Ibass	*	*Itenor	*	*Ialto	*	*Ialto	*	*Isoprn	*
*ICvox	*	*ICvox	*	*ICvox	*	*ICvox	*	*ICvox	*
*clefF4	*	*clefC4	*	*clefC3	*	*clefC3	*	*clefC1	*
*	*	*mclefGv2	*	*mclefGv2	*	*mclefG2	*	*mclefG2	*
*k[b-]	*	*k[b-]	*	*k[b-]	*	*k[b-]	*	*k[b-]	*
*g:aeo	*	*g:aeo	*	*g:aeo	*	*g:aeo	*	*g:aeo	*
*M2/1	*	*M2/1	*	*M2/1	*	*M2/1	*	*M2/1	*
*met(C|)	*	*met(C|)	*	*met(C|)	*	*met(C|)	*	*met(C|)	*
*mmet(c|)	*	*mmet(c|)	*	*mmet(c|)	*	*mmet(c|)	*	*mmet(c|)	*
=1-	=1-	=1-	=1-	=1-	=1-	=1-	=1-	=1-	=1-
!!LO:TX:a:i:t= :mod=Seconda parte
!LO:TX:a:i:t=Seconda parte.:mod=	!	!LO:TX:a:i:t=Seconda parte.:mod=	!	!LO:TX:a:i:t=Seconda parte.:mod=	!	!LO:TX:a:i:t=Seconda parte.:mod=	!	!LO:TX:a:i:t=Seconda parte.:mod=	!
*xywh-#208:1126,571,3459,801	*	*xywh-#360:1258,534,3375,827	*	*xywh-#56:874,555,3571,838	*	*xywh-#512:1080,535,3438,809	*	*xywh-#664:1141,464,3412,800	*
00r	.	00r	.	1G	O	00r	.	0r	.
.	.	.	.	2r	.	.	.	.	.
!	!	!	!	!	!LO:MO:mod=so-	!	!	!	!
.	.	.	.	1c\	So-	.	.	.	.
=2-	=2-	=2-	=2-	=2-	=2-	=2-	=2-	=2-	=2-
.	.	.	.	.	.	.	.	1g	O
.	.	.	.	2B-/	-li-	.	.	.	.
!	!	!	!	!LO:SIC:s=2e-i	!	!	!	!	!
.	.	.	.	2e\	-ta-	.	.	2r	.
!	!	!	!	!LO:SIC:s=2e-i	!	!	!	!	!LO:MO:mod=so-
.	.	.	.	2e\	-ri	.	.	1cc\	So-
=3-	=3-	=3-	=3-	=3-	=3-	=3-	=3-	=3-	=3-
00r	.	0r	.	2.d\	col-	1G	O	.	.
.	.	.	.	.	.	.	.	2b-\	-li-
.	.	.	.	4d\	-li_o	.	.	.	.
!	!	!	!	!	!	!	!	!LO:SIC:s=2ee-i	!
.	.	.	.	1.g	ver-	2r	.	2ee\	-ta-
!	!	!	!	!	!	!	!LO:MO:mod=so-	!LO:SIC:s=2ee-i	!
.	.	.	.	.	.	1c\	So-	2ee\	-ri
=4-	=4-	=4-	=4-	=4-	=4-	=4-	=4-	=4-	=4-
.	.	1G	O	.	.	.	.	2.dd\	col-
.	.	.	.	2d\	-de	2B-/	-li-	.	.
.	.	.	.	.	.	.	.	4cc\	.
!	!	!	!	!	!	!LO:SIC:s=2e-i	!	!	!
.	.	2r	.	1g	ri-	2e\	-ta-	2b-\	.
!	!	!	!LO:MO:mod=so-	!	!	!LO:SIC:s=2e-i	!	!	!
.	.	1c\	So-	.	.	2e\	-ri	2cc\	-li_o
=5-	=5-	=5-	=5-	=5-	=5-	=5-	=5-	=5-	=5-
!	!	!	!	!	!LO:MO:mod=-va	!	!	!	!
1GG	O	.	.	1g	-ua	2.d\	col-	2.dd\	ver-
.	.	2B-\	-li-	.	.	.	.	.	.
.	.	.	.	.	.	4d\	-li_o	4cc\	.
!	!	!LO:SIC:s=2e-i	!	!	!	!	!	!	!
2r	.	2e\	-ta-	0r	.	4g\	ver-	4b-\	.
.	.	.	.	.	.	4f\	.	4a\	.
!	!LO:MO:mod=so-	!LO:SIC:s=2e-i	!	!	!	!	!	!	!
1C/	So-	2e\	-ri	.	.	4e-X\	.	4g\	.
.	.	.	.	.	.	4d\	.	4f/	.
=6-	=6-	=6-	=6-	=6-	=6-	=6-	=6-	=6-	=6-
!	!	!LO:SIC:s=2e-i	!	!	!	!	!	!	!
.	.	2e\	col-	.	.	2c/	.	4g/	.
.	.	.	.	.	.	.	.	4a/	.
2BB-/	-li-	2d\	-li_o	.	.	2f\	-de	1b-	.
!LO:SIC:s=2E-i	!	!	!	!	!	!	!	!	!
2E\	-ta-	2B-\	ver-	1r	.	1.g	ri-	.	.
!LO:SIC:s=2E-i	!	!	!	!	!	!	!	!	!
2E\	-ri	4A/	.	.	.	.	.	2cc\	-de
.	.	4G/	.	.	.	.	.	.	.
*	*	*	*	*	*	*	*	*custos:dd	*
!	!	!	!	!	!	!	!	!LO:LB:g=original	!
=7-	=7-	=7-	=7-	=7-	=7-	=7-	=7-	=7-	=7-
*	*	*	*	*	*	*	*	*xywh-#664:1129,1087,3424,788	*
1D	col-	2A/	.	2r	.	.	.	2.dd\	ri-
!	!	!	!	!	!	!	!LO:MO:mod=-va	!	!
.	.	2A/	-de	2A/	li_o	2f#X\	-ua	.	.
.	.	.	.	.	.	.	.	4cc\	.
*	*	*	*	*	*	*	*	*lig	*
!	!	!	!	!	!	!	!	!	!LO:MO:mod=-va
1GG	-li_o	1G	ri-	1.d	ver-	2r	.	1b-	-ua
!	!	!	!	!	!	!	!LO:MO:mod=Stan-	!	!
.	.	.	.	.	.	2.g\	Sta(n)-	.	.
=8-	=8-	=8-	=8-	=8-	=8-	=8-	=8-	=8-	=8-
!	!	!	!LO:MO:mod=-va	!	!	!	!	!	!
2D\	ver-	2.A/	-ua	.	.	.	.	1a	.
.	.	.	.	.	.	4g\	-chi	.	.
2D\	-de	.	.	2A/	-de	2fny\	pur	.	.
!	!	!	!LO:MO:mod=Stan-	!	!	!	!	!	!
.	.	2d\	Sta(n)-	.	.	.	.	.	.
!	!	!	!	!	!	!LO:SIC:v:t=custos f	!	!	!
*	*	*	*	*	*	*custos:f	*	*Xlig	*
!	!	!	!	!	!	!LO:LB:g=original	!	!	!
*	*	*	*	*	*	*xywh-#512:1162,1181,3391,762	*	*	*
1AA	ri-	.	.	2A/	ri-	2f\	di	1r	.
.	.	4d\	-chi	.	.	.	.	.	.
!	!	!	!	!	!LO:MO:mod=-va	!	!	!	!
.	.	2c\	pur	4A/	-ua	2eny\	ve-	.	.
!	!	!	!	!	!LO:MO:mod=Stan-	!	!	!	!
.	.	.	.	2a\	Sta(n)-	.	.	.	.
=9-	=9-	=9-	=9-	=9-	=9-	=9-	=9-	=9-	=9-
!	!LO:MO:mod=-va	!	!	!	!	!	!	!	!
1D	-ua	2B-/	di	.	.	2d\	-der	0r	.
.	.	.	.	4g\	-chi	.	.	.	.
!	!	!	!	!	!	!	!LO:MO:mod=stan-	!	!
.	.	2A/	ve-	2f\	pur	2.d\	Sta(n)-	.	.
*	*	*	*	*custos:e	*	*	*	*	*
!	!	!	!	!LO:LB:g=original	!	!	!	!	!
*	*	*	*	*xywh-#56:994,1176,3419,773	*	*	*	*	*
1r	.	2G/	-der	2e\	di	.	.	.	.
.	.	.	.	.	.	4d\	-chi	.	.
*	*	*custos:A	*	*	*	*	*	*	*
!	!	!LO:LB:g=original	!	!	!	!	!	!	!
*	*	*xywh-#360:1204,1187,3397,686	*	*	*	*	*	*	*
.	.	2A/	gl'af-	2e\	ve-	2c#X/	pur	.	.
=10-	=10-	=10-	=10-	=10-	=10-	=10-	=10-	=10-	=10-
0r	.	2B-\	-fan-	2d\	-der	8d\	di	2r	.
.	.	.	.	.	.	8cny/	.	.	.
.	.	.	.	.	.	8B-/	.	.	.
.	.	.	.	.	.	8A/	.	.	.
!	!	!	!	!	!LO:MO:mod=stan-	!	!	!	!
.	.	2B-\	-ni	2.g\	Sta(n)-	4G/	.	2.dd\	Stan-
.	.	.	.	.	.	4g\	ve-	.	.
.	.	1A	mie-	.	.	2a\	-der	.	.
.	.	.	.	4f\	-chi	.	.	4dd\	-chi
.	.	.	.	2e\	pur	2a\	gl'af-	2cc\	pur
=11-	=11-	=11-	=11-	=11-	=11-	=11-	=11-	=11-	=11-
2r	.	1D	-i	2d\	di	1.f	-fan-	2b-\	di
2.D\	Stan-	.	.	2d\	ve-	.	.	2a\	ve-
.	.	1r	.	2d\	-der	.	.	2b-\	-der
4D\	-chi	.	.	.	.	.	.	.	.
2C/	pur	.	.	2g\	gl'af-	2e\	-ni	2cc\	gl'af-
=12-	=12-	=12-	=12-	=12-	=12-	=12-	=12-	=12-	=12-
2BB-/	di	0r	.	2g\	-fan-	2.d\	mie-	1.dd	-fan-
2BB-/	ve-	.	.	2f\	-ni	.	.	.	.
.	.	.	.	.	.	4e\	.	.	.
*custos:AA	*	*	*	*	*	*	*	*	*
!LO:LB:g=original	!	!	!	!	!	!	!	!	!
*xywh-#208:1113,1238,3411,631	*	*	*	*	*	*	*	*	*
1AA	-der	.	.	1a	mie-	2f\	.	.	.
.	.	.	.	.	.	2e\	-i	1cc\	-ni
=13-	=13-	=13-	=13-	=13-	=13-	=13-	=13-	=13-	=13-
1GG	gl'af-	1r	.	1d	-i	1g	gl'af-	.	.
*	*	*	*	*	*	*	*	*lig	*
.	.	.	.	.	.	.	.	1b-	mie-
2C/	-fan-	2r	.	2c/	gl'af-	2e-X\	-fan-	.	.
!	!	!	!LO:MO:mod=gl'af-	!	!	!	!	!	!
2C/	-ni	2c\	gli af-	1c\	-fan-	2e-\	-ni	1a\	.
*	*	*	*	*	*	*	*	*Xlig	*
=14-	=14-	=14-	=14-	=14-	=14-	=14-	=14-	=14-	=14-
0D	mie-	2F/	-fan-	.	.	1d	mie-	.	.
.	.	2G/	-ni	2B-/	-ni	.	.	1g	.
!	!	!	!LO:MO:mod=mie-	!	!	!	!	!	!
.	.	4A\	mi[e]-	1A	mie-	2d\	-i	.	.
.	.	4D/	.	.	.	.	.	.	.
*	*	*	*	*	*	*custos:d	*	*	*
!	!	!	!	!	!	!LO:LB:g=original	!	!	!
*	*	*	*	*	*	*xywh-#512:1127,1615,3426,809	*	*	*
.	.	2d\	.	.	.	4r	.	2f#X/	.
.	.	.	.	.	.	2d\	Quan-	.	.
=15-	=15-	=15-	=15-	=15-	=15-	=15-	=15-	=15-	=15-
!	!	!LO:MO:mod=!null:null	!	!	!	!	!	!	!
!	!	!LO:N:acc=#	!	!	!	!	!	!	!
1GG	-i	4Bn\	-i	4G/	-i	.	.	1g	-i
.	.	2B\	Quan-	2G/	Quan-	4d\	-do	.	.
.	.	.	.	.	.	2.eny\	fia	.	.
.	.	4B\	-do	4G/	-do	.	.	.	.
1r	.	2.c\	fia	2A/	fia	.	.	1r	.
.	.	.	.	.	.	2f\	mai	.	.
.	.	.	.	2F/	mai	.	.	.	.
.	.	2d\	mai	.	.	4f\	che	.	.
=16-	=16-	=16-	=16-	=16-	=16-	=16-	=16-	=16-	=16-
00r	.	.	.	4B-/	che	2g\	ri-	0r	.
.	.	4B-y\	che	2G/	ri-	.	.	.	.
.	.	4c\	ri-	.	.	2a\	-po-	.	.
.	.	4d\	-po-	4F#X/	-po-	.	.	.	.
*	*	*	*	*custos:G	*	*	*	*	*
!	!	!	!	!LO:LB:g=original	!	!	!	!	!
*	*	*	*	*xywh-#56:874,1786,3539,664	*	*	*	*	*
.	.	4e\	-ſa-	2G/	-ſa-	4.g\	-ſa-	.	.
.	.	4d\	.	.	.	.	.	.	.
.	.	.	.	.	.	8f\	.	.	.
.	.	4c\	.	4g\	-t'io	4e-X\	.	.	.
.	.	4B-\	.	2g\	vi-	4d\	-t'io	.	.
*	*	*custos:A	*	*	*	*	*	*	*
!	!	!LO:LB:g=original	!	!	!	!	!	!	!
=17-	=17-	=17-	=17-	=17-	=17-	=17-	=17-	=17-	=17-
*	*	*xywh-#360:1302,1710,3321,729	*	*	*	*	*	*	*
.	.	2A/	.	.	.	1c	vi-	2r	.
.	.	.	.	8f\	.	.	.	.	.
.	.	.	.	8e\	.	.	.	.	.
.	.	2A/	-t'io	2f#X\	.	.	.	2a\	O
!	!	!	!	!	!LO:MO:mod=-va?	!	!LO:MO:mod=-va?	!	!
.	.	2.G/	vi-	2.g\	-ua	2d\	-ua	2.b-\	per
.	.	.	.	.	.	2d\	O	.	.
!	!	!	!LO:MO:mod=-va?	!	!	!	!	!	!
.	.	4G/	-ua	4g\	O	.	.	4b-\	tal
*	*	*	*	*	*	*	*	*custos:b-	*
!	!	!	!	!	!	!	!	!LO:LB:g=original	!
=18-	=18-	=18-	=18-	=18-	=18-	=18-	=18-	=18-	=18-
*	*	*	*	*	*	*	*	*xywh-#664:1117,1629,3412,776	*
1r	.	1r	.	2g\	per	2G/	per	2b-\	gra-
!	!	!	!	!	!	!	!	!	!LO:MO:mod=-zia_un
.	.	.	.	2e-X\	tal	2g\	tal	2cc\	-tia un
1D	O	1A	O	2.d\	gra-	2g\	gra-	1dd	dì
!	!	!	!	!	!	!	!LO:MO:mod=-zia_un	!	!
.	.	.	.	.	.	2f#X\	-tia_un	.	.
!	!	!	!	!	!LO:MO:mod=-zia_un	!	!	!	!
.	.	.	.	4d\	-tia_un	.	.	.	.
=19-	=19-	=19-	=19-	=19-	=19-	=19-	=19-	=19-	=19-
2GG/	per	2.B-\	per	2d\	dì	1g	dì	0r	.
!	!	!	!	!	!LO:MO:mod=o	!	!	!	!
2G\	tal	.	.	2d\	O	.	.	.	.
.	.	4B-\	tal	.	.	.	.	.	.
2G\	gra-	2B-\	gra-	2G/	per	2r	.	.	.
!	!LO:MO:mod=-zia_un	!	!LO:MO:mod=-zia_un	!	!	!	!LO:MO:mod=o	!	!
2E-X\	-tia_un	2c\	-tia_un	2g\	tal	2G/	O	.	.
=20-	=20-	=20-	=20-	=20-	=20-	=20-	=20-	=20-	=20-
1D	dì	1d	dì	2g\	gra-	2B-/	per	2r	.
!	!	!	!	!	!LO:MO:mod=-zia_un	!	!	!	!LO:MO:mod=o
.	.	.	.	2f#X\	-tia_un	2A/	tal	2a\	O
*	*	*	*	*	*	*custos:G	*	*	*
!	!	!	!	!	!	!LO:LB:g=original	!	!	!
*	*	*	*	*	*	*xywh-#512:1162,2260,3414,797	*	*	*
1r	.	1r	.	2g\	dì	2G/	gra-	2.b-\	per
!	!	!	!	!	!LO:MO:mod=veg-	!	!LO:MO:mod=-zia_un	!	!
.	.	.	.	2g\	ueg-	2e-X\	-tia_un	.	.
.	.	.	.	.	.	.	.	4b-\	tal
=21-	=21-	=21-	=21-	=21-	=21-	=21-	=21-	=21-	=21-
2r	.	2r	.	2fny\	-gia	2d\	dì	2b-\	gra-
!	!LO:MO:mod=o	!	!LO:MO:mod=o	!	!	!	!LO:MO:mod=o	!	!LO:MO:mod=-zia_un
2C/	O	2G/	O	2eny\	co-	2eny\	O	2cc\	-tia_un
2.BB-/	per	2.D/	per	2d\	-le-	2.fny\	per	0dd	dì
.	.	.	.	2d\	-i	.	.	.	.
4BB-/	tal	4d\	tal	.	.	4f\	tal	.	.
=22-	=22-	=22-	=22-	=22-	=22-	=22-	=22-	=22-	=22-
2BB-/	gra-	2d\	gra-	2r	.	2f\	gra-	.	.
!	!LO:MO:mod=-zia_un	!	!LO:MO:mod=-zia_un	!	!LO:MO:mod=o	!	!LO:MO:mod=-zia_un	!	!
2BB-/	-tia_un	2B-\	-tia_un	2d\	O	2g\	-tia_un	.	.
*	*	*	*	*custos:f	*	*	*	*	*
!	!	!	!	!LO:LB:g=original	!	!	!	!	!
*	*	*	*	*xywh-#56:928,2309,3484,696	*	*	*	*	*
2FF/	dì	2.c\	dì	2.f\	per	1a	dì	2r	.
2F\	veg-	.	.	.	.	.	.	2cc\	veg-
.	.	4A/	veg-	4f\	tal	.	.	.	.
=23-	=23-	=23-	=23-	=23-	=23-	=23-	=23-	=23-	=23-
4G\	-gia	4B-\	-gia	4d\	gra-	0r	.	4.b-\	-gia
!	!	!	!	!	!LO:MO:mod=-zia_un	!	!	!	!
4E-X\	co-	4G/	co-	4g\	-tia_un	.	.	.	.
.	.	.	.	.	.	.	.	8cc\	.
!	!	!LO:SIC:s=8AL	!	!	!	!	!	!	!
4.D\	-le-	8A/	-le-	4f\	dì	.	.	4dd\	.
!	!	!LO:SIC:s=8FJ	!	!	!	!	!	!	!
.	.	8F/	.	.	.	.	.	.	.
!	!	!	!	!	!LO:MO:mod=veg-	!	!	!	!
.	.	4B-\	.	4.f\	ueg-	.	.	4dd\	co-
!LO:SIC:s=8Ei	!	!	!	!	!	!	!	!	!
8E-\	.	.	.	.	.	.	.	.	.
*custos:F	*	*	*	*	*	*	*	*	*
!LO:LB:g=original	!	!	!	!	!	!	!	!	!
*xywh-#208:1186,1748,3350,679	*	*	*	*	*	*	*	*	*
*lig	*	*	*	*	*	*	*	*	*
1F	-i	4A/	.	.	.	.	.	4cc\	-le-
.	.	.	.	8f\	-gia	.	.	.	.
.	.	4B-\	.	4d\	co-	.	.	2b-\	.
*	*	*custos:c	*	*	*	*	*	*	*
!	!	!LO:LB:g=original	!	!	!	!	!	!	!
*	*	*xywh-#360:1193,2320,3462,620	*	*	*	*	*	*	*
.	.	2c\	.	2c/	-le-	.	.	.	.
.	.	.	.	.	.	.	.	4a\	.
=24-	=24-	=24-	=24-	=24-	=24-	=24-	=24-	=24-	=24-
1BB-	.	2B-\	-i	1d	-i	4r	.	1b-	-i
.	.	.	.	.	.	4f\	Per	.	.
.	.	4r	.	.	.	4f\	cui	.	.
.	.	4B-\	Per	.	.	4d\	vuol	.	.
*Xlig	*	*	*	*	*	*	*	*	*
!	!	!	!	!	!	!	!LO:MO:mod=sem-	!	!
0r	.	4B-\	cui	2r	.	4g\	se(m)-	4r	.
.	.	4G/	vuol	.	.	4g\	-pre_a-	4b-\	Per
!	!	!	!LO:MO:mod=sem-	!	!	!	!	!	!
.	.	4d\	se(m)-	4r	.	8f\	-mor	4b-\	cui
.	.	.	.	.	.	8e\	.	.	.
.	.	4d\	-pre_a-	4f\	Per	8f\	.	4a\	vuol
.	.	.	.	.	.	8g\	.	.	.
=25-	=25-	=25-	=25-	=25-	=25-	=25-	=25-	=25-	=25-
!	!	!	!	!	!	!	!	!	!LO:MO:mod=sem-
.	.	8d\	-mor	4f\	cui	4a\	.	4dd\	se(m)-
.	.	8c\	.	.	.	.	.	.	.
.	.	8B-\	.	4d\	vuol	4b-\	ch'io	4dd\	-pre_a-
.	.	8A\	.	.	.	.	.	.	.
*	*	*	*	*	*	*	*	*custos:dd	*
!	!	!	!	!	!	!	!	!LO:LB:g=original	!
!	!	!	!	!	!LO:MO:mod=sem-	!	!	!	!
*	*	*	*	*	*	*	*	*xywh-#664:1141,2111,3400,776	*
.	.	2.G/	.	4g\	se(m)-	4b-\	par-	8dd\	-mor
.	.	.	.	.	.	.	.	8cc\	.
.	.	.	.	4g\	-pre_a-	4b-\	-li_e	8b-\	.
.	.	.	.	.	.	.	.	8a\	.
*	*	*	*	*	*	*custos:g	*	*	*
!	!	!	!	!	!	!LO:LB:g=original	!	!	!
*	*	*	*	*	*	*xywh-#512:1150,2788,3356,751	*	*	*
4r	.	.	.	8g\	-mor	2g\	ſcri-	2.b-\	.
.	.	.	.	8f\	.	.	.	.	.
4E-X\	Per	4G/	ch'io	8e-X\	.	.	.	.	.
.	.	.	.	8d\	.	.	.	.	.
!	!	!	!	!	!	!	!LO:MO:mod=-va	!	!
4E-\	cui	4G/	par-	2e-\	.	4g\	-ua	.	.
4C/	vuol	4c\	-li_e	.	.	4g\	ch'io	4cc\	ch'io
=26-	=26-	=26-	=26-	=26-	=26-	=26-	=26-	=26-	=26-
!	!LO:MO:mod=sem-	!	!	!	!	!	!	!	!
4G\	se(m)-	2B-\	ſcri-	2d\	ch'io	8g\	par-	2dd\	par-
.	.	.	.	.	.	8f\	.	.	.
4G\	-pre_a-	.	.	.	.	8g\	.	.	.
.	.	.	.	.	.	8a\	.	.	.
!	!	!	!LO:MO:mod=-va	!	!	!	!	!	!
8G\	-mor	4B-\	-ua	2.g\	par-	8b-\	.	4dd\	-li
8F\	.	.	.	.	.	8a\	.	.	.
8E-X\	.	4B-\	ch'io	.	.	8g\	.	4ee-X\	ch'io
8D\	.	.	.	.	.	8f\	.	.	.
2C/	.	4c\	par-	.	.	4e-X\	.	2ee-\	par-
.	.	4B-\	-li_e	2g\	-li	4g\	-li_e	.	.
2D/	ch'io	2A/	ſcri-	.	.	4d\	ſcri-	4dd\	-li_e
!	!	!	!	!	!	!LO:SIC:s=8eiL	!	!	!
.	.	.	.	4f\	ch'io	8e-\	.	4.dd\	ſcri-
!	!	!	!	!	!	!LO:SIC:s=8fJ	!	!	!
.	.	.	.	.	.	8f\	.	.	.
*	*	*	*	*custos:e-	*	*	*	*	*
!	!	!	!	!LO:LB:g=original	!	!	!	!	!
=27-	=27-	=27-	=27-	=27-	=27-	=27-	=27-	=27-	=27-
*	*	*	*	*xywh-#56:830,2853,3637,707	*	*	*	*	*
!	!	!	!LO:MO:mod=-va	!	!	!	!	!	!
4.E-X\	par-	1G	-ua	4e-X\	par-	1g	.	.	.
.	.	.	.	.	.	.	.	8cc\J	.
.	.	.	.	4e-\	-li_e	.	.	2cc\	.
8C/	-li_e	.	.	.	.	.	.	.	.
2G\	ſcri-	.	.	2d\	ſcri-	.	.	.	.
!	!	!	!	!	!	!	!	!LO:MO:mod=!null:null	!
!	!	!	!	!	!	!	!	!LO:N:acc=#	!
.	.	.	.	.	.	.	.	4bn\	.
!	!LO:MO:mod=-va	!	!	!	!LO:MO:mod=-va	!	!LO:MO:mod=-va	!	!LO:MO:mod=-va
2C/	-ua	1G	Fer-	2c/	-ua	2eny\	-ua	2cc\	-ua
2C/	Fer-	.	.	2c/	Fer-	2.e\	Fer-	2cc\	Fer-
=28-	=28-	=28-	=28-	=28-	=28-	=28-	=28-	=28-	=28-
!	!	!	!	!LO:MO:mod=!null:null	!	!	!	!	!
!	!	!	!	!LO:N:acc=#	!	!	!	!	!
2.AA/	-mar-	2A/	-mar-	2.en\	-mar-	.	.	2.cc#X\	-mar-
.	.	.	.	.	.	2a\	-mar-	.	.
.	.	2A/	-ſi	.	.	.	.	.	.
4AA/	-ſi	.	.	4e\	-ſi	4a\	-ſi	4cc#\	-ſi
*	*	*custos:A	*	*	*	*	*	*	*
!	!	!LO:LB:g=original	!	!	!	!	!	!	!
*	*	*xywh-#360:1269,2755,3375,816	*	*	*	*	*	*	*
2r	.	2r	.	2r	.	2r	.	2r	.
!	!LO:MO:mod=fer-	!	!LO:MO:mod=fer-	!	!LO:MO:mod=fer-	!	!LO:MO:mod=fer-	!	!LO:MO:mod=fer-
2D\	Fer-	2A\	Fer-	2d\	Fer-	2f\	Fer-	2dd\	Fer-
*custos:BB-	*	*	*	*	*	*	*	*	*
!LO:LB:g=original	!	!	!	!	!	!	!	!	!
=29-	=29-	=29-	=29-	=29-	=29-	=29-	=29-	=29-	=29-
*xywh-#208:1089,2307,3435,716	*	*	*	*	*	*	*	*	*
2.BB-/	-mar-	2B-\	-mar-	2d\	-mar-	2.f\	-mar-	2.dd\	-mar-
.	.	2B-\	-ſi	2d\	-ſi	.	.	.	.
4BB-/	-ſi	.	.	.	.	4f\	-ſi	4dd\	-ſi
*	*	*	*	*	*	*custos:g	*	*	*
!	!	!	!	!	!	!LO:LB:g=original	!	!	!
*	*	*	*	*	*	*xywh-#512:1150,3316,3332,797	*	*	*
2r	.	4r	.	2r	.	2r	.	0r	.
!	!	!	!LO:MO:mod=fer-	!	!	!	!	!	!
.	.	2B-\	Fer-	.	.	.	.	.	.
!	!LO:MO:mod=fer-	!	!	!	!	!	!LO:MO:mod=fer-	!	!
2E-X\	Fer-	.	.	4r	.	2g\	Fer-	.	.
!	!	!	!	!	!LO:MO:mod=quan-	!	!	!	!
.	.	2G/	-mar-	4B-/	qua(n)-	.	.	.	.
=30-	=30-	=30-	=30-	=30-	=30-	=30-	=30-	=30-	=30-
2.C/	-mar-	.	.	2c/	-t'io	2e-X\	-mar-	.	.
.	.	4E-X/	-ſi_al	.	.	.	.	.	.
!	!	!	!LO:MO:mod=pian-	!	!LO:MO:mod=vor-	!	!	!	!
.	.	4F/	pia(n)-	2d\	uo-	4d\	-ſi_al	.	.
!LO:MO:mod=!null:null	!	!	!	!	!	!	!	!	!
!LO:N:acc=#	!	!	!	!	!	!	!LO:MO:mod=pian-	!	!
4BBn/	-ſi_al	4G/	-ger	.	.	2d\	pia(n)-	.	.
*	*	*	*	*	*	*	*	*custos:g	*
!	!	!	!	!	!	!	!	!LO:LB:g=original	!
*	*	*	*	*	*	*	*	*xywh-#664:1094,2711,3424,776	*
2C/	pian-	2.G/	mio	2e-X\	-re-	.	.	4r	.
!	!	!	!	!	!	!	!	!	!LO:MO:mod=fer-
.	.	.	.	.	.	4c/	-ger	2g/	Fer-
2C/	-ger	.	.	2e-\	-i	2c/	mio	.	.
!	!	!	!	!	!	!	!	!LO:MO:mod=[4e-	!
.	.	4A/	quan-	.	.	.	.	2e-X/	-mar-
=31-	=31-	=31-	=31-	=31-	=31-	=31-	=31-	=31-	=31-
!	!	!	!	!	!	!LO:MO:mod=0r	!	!LO:MO:null:mod=4e-]	!
2GG/	mio	2B-\	-t'io	2r	.	1r	.	.	.
.	.	.	.	.	.	.	.	4d/	-ſi_al
!	!	!	!LO:MO:mod=vor-	!	!	!	!	!	!LO:MO:mod=pian-
1r	.	2c\	vo-	4r	.	.	.	4e-X/	pia(n)-
!	!	!	!	!	!LO:MO:mod=fer-	!	!	!	!
.	.	.	.	2g\	Fer-	.	.	4e-/	-ger
!	!	!	!	!	!	!LO:MO:mod=.	!	!LO:SIC:s=2B-	!
.	.	1d	-re-	.	.	0r	.	2B-X/	mio
.	.	.	.	2f\	-mar-	.	.	.	.
*	*	*	*	*	*	*	*	*	*ij
!	!	!	!	!	!	!	!	!	!LO:MO:mod=fer-
2BB-y/	quan-	.	.	.	.	.	.	2b-y\	Fer-
.	.	.	.	4d\	-ſi_al	.	.	.	.
=32-	=32-	=32-	=32-	=32-	=32-	=32-	=32-	=32-	=32-
!	!	!	!	!	!LO:MO:mod=pian-	!LO:MO:null:mod=0r	!	!	!
2C/	-t'io	4c\	-i	2e-X\	pia(n)-	.	.	2.g/	-mar-
.	.	4c\	quan-	.	.	.	.	.	.
!	!LO:MO:mod=vor-	!	!	!	!	!	!	!	!
2D\	vo-	4B-\	-t'io	4d\	-ger	.	.	.	.
!	!	!	!LO:MO:mod=vor-	!	!	!	!	!	!
.	.	4A/	uo-	2d\	mio	.	.	4f#X/	-ſi_al
!LO:SIC:s=1E-i	!	!	!	!	!	!LO:MO:mod=.	!	!	!LO:MO:mod=pian-
1Eny	-re-	2.G/	-re-	.	.	1r	.	2g/	pia(n)-
!	!	!	!	!LO:SIC:s=8cL	!	!	!	!	!
.	.	.	.	8c/	.	.	.	.	.
!	!	!	!	!LO:SIC:s=8B-J	!	!	!	!	!
.	.	.	.	8B-/	.	.	.	.	.
.	.	.	.	2c/	.	.	.	2g/	-ger
.	.	4A/	.	.	.	.	.	.	.
*	*	*	*	*custos:d	*	*	*	*	*
!	!	!	!	!LO:LB:g=original	!	!	!	!	!
=33-	=33-	=33-	=33-	=33-	=33-	=33-	=33-	=33-	=33-
*	*	*	*	*xywh-#56:928,3387,3462,784	*	*	*	*	*
!	!	!	!	!	!LO:MO:mod=quan-	!	!	!	!
1.D	-i	4B-\	.	1d	qua(n)-	2r	.	2fny/	mio
.	.	8A/	.	.	.	.	.	.	.
.	.	8G/	.	.	.	.	.	.	.
*	*	*	*	*	*	*	*	*	*Xij
.	.	4F/	.	.	.	2.f\	quan-	2a\	quan-
.	.	2f\	.	.	.	.	.	.	.
.	.	.	.	2d\	-t'io	.	.	2b-\	-t'io
.	.	8e\	.	.	.	4g\	-t'io	.	.
.	.	8d\	.	.	.	.	.	.	.
!	!	!	!	!	!LO:MO:mod=vor-	!	!LO:MO:mod=vor-	!	!LO:MO:mod=vor-
2AA/	quan-	4c\	.	2eny\	vo-	2a\	vo-	1ccny\	vo-
.	.	4B-\	.	.	.	.	.	.	.
*	*	*custos:A	*	*	*	*	*	*	*
!	!	!LO:LB:g=original	!	!	!	!	!	!	!
=34-	=34-	=34-	=34-	=34-	=34-	=34-	=34-	=34-	=34-
*	*	*xywh-#360:1280,3409,3332,686	*	*lig	*	*	*	*	*
2F\	-t'io	1A	.	1f	-re-	1a	-re-	.	.
4E\	uo-	.	.	.	.	.	.	2.dd\	-re-
4D/	.	.	.	.	.	.	.	.	.
1A	-re-	1.A	-i	1e	.	2a\	-i	.	.
!	!	!	!	!	!	!	!	!LO:SIC:s=8cc#iL	!
.	.	.	.	.	.	.	.	8cc\	.
!	!	!	!	!	!	!	!	!LO:SIC:s=8biJ	!
.	.	.	.	.	.	.	.	8b-\	.
!	!	!	!	!	!	!	!LO:MO:mod=quan-	!	!
.	.	.	.	.	.	2a\	qua(n)-	2cc#X\	.
*	*	*	*	*Xlig	*	*	*	*	*
=35-	=35-	=35-	=35-	=35-	=35-	=35-	=35-	=35-	=35-
2D/	-i	.	.	1f#X	-i	2.a\	-t'io	1dd	-i
!	!LO:MO:mod=o	!	!LO:MO:mod=o	!	!	!	!	!	!
2D/	O	2A/	O	.	.	.	.	.	.
!	!	!	!	!	!	!	!LO:MO:mod=vor-	!	!
.	.	.	.	.	.	4d\	vo-	.	.
2GG/	per	2.B-\	per	2r	.	1d	-re-	0r	.
!	!	!	!	!	!LO:MO:mod=o	!	!	!	!
2G\	tal	.	.	2d\	O	.	.	.	.
.	.	4B-\	tal	.	.	.	.	.	.
*custos:G	*	*	*	*	*	*	*	*	*
!LO:LB:g=original	!	!	!	!	!	!	!	!	!
=36-	=36-	=36-	=36-	=36-	=36-	=36-	=36-	=36-	=36-
*xywh-#208:1198,2877,3375,691	*	*	*	*	*	*	*	*	*
2G\	gra-	2B-\	gra-	2G/	per	2d\	-i	.	.
!	!LO:MO:mod=-zia_un	!	!LO:MO:mod=-zia_un	!	!	!	!	!	!
2E-X\	-tia_un	2c\	-tia_un	2g\	tal	4r	.	.	.
!	!	!	!	!	!	!	!LO:MO:mod=o	!	!
.	.	.	.	.	.	4G/	O	.	.
1D	dì	1d	dì	2g\	gra-	2B-/	per	2r	.
!	!	!	!	!	!LO:MO:mod=-zia_un	!	!	!	!LO:MO:mod=o
.	.	.	.	2f#X\	-tia_un	2A/	tal	2a\	O
=37-	=37-	=37-	=37-	=37-	=37-	=37-	=37-	=37-	=37-
1r	.	1r	.	2g\	dì	2G/	gra-	2.b-\	per
!	!	!	!	!	!LO:MO:mod=veg-	!	!LO:MO:mod=-zia_un	!	!
.	.	.	.	2g\	ueg-	2e-X\	-tia_un	.	.
.	.	.	.	.	.	.	.	4b-\	tal
*	*	*	*	*	*	*	*	*custos:b-	*
!	!	!	!	!	!	!	!	!LO:LB:g=original	!
*	*	*	*	*	*	*	*	*xywh-#664:1176,3253,3365,753	*
2r	.	2r	.	2fny\	-gia	2d\	dì	2b-\	gra-
*	*	*	*	*	*	*custos:e	*	*	*
!	!LO:MO:mod=o	!	!LO:MO:mod=o	!LO:SIC:s=2e-i	!	!LO:LB:g=original	!LO:MO:mod=o	!	!LO:MO:mod=-zia_un
*	*	*	*	*	*	*xywh-#512:1127,3880,3379,797	*	*	*
2C/	O	2G/	O	2e\	co-	2e-y\	O	2ccny\	-tia_un
=38-	=38-	=38-	=38-	=38-	=38-	=38-	=38-	=38-	=38-
2.BB-/	per	2.D/	per	2d\	-le-	2.f\	per	0dd	dì
.	.	.	.	2d\	-i	.	.	.	.
4BB-/	tal	4d\	tal	.	.	4f\	tal	.	.
2BB-/	gra-	2d\	gra-	2r	.	2f\	gra-	.	.
!	!LO:MO:mod=-zia_un	!	!LO:MO:mod=-zia_un	!	!LO:MO:mod=o	!	!LO:MO:mod=-zia_un	!	!
2BB-/	-tia_un	2B-\	-tia_un	2d\	O	2g\	-tia_un	.	.
=39-	=39-	=39-	=39-	=39-	=39-	=39-	=39-	=39-	=39-
2FF/	dì	2.c\	dì	2.f\	per	1a	dì	2r	.
2F\	veg-	.	.	.	.	.	.	2cc\	veg-
.	.	4A/	veg-	4f\	tal	.	.	.	.
4G\	-gia	4B-\	-gia	4d\	gra-	0r	.	4.b-\	-gia
!	!	!	!	!	!LO:MO:mod=-zia_un	!	!	!	!
4E-X\	co-	4G/	co-	4g\	-tia_un	.	.	.	.
.	.	.	.	.	.	.	.	8cc\	.
4.D/	-le-	8A/	-le-	4f\	dì	.	.	4dd\	.
.	.	8F/	.	.	.	.	.	.	.
!	!	!	!	!LO:MO:mod=[4f	!LO:MO:mod=veg-	!	!	!	!
.	.	4B-\	.	4.f\	ueg-	.	.	4dd\	co-
8E-\	.	.	.	.	.	.	.	.	.
=40-	=40-	=40-	=40-	=40-	=40-	=40-	=40-	=40-	=40-
*lig	*	*	*	*	*	*	*	*	*
!	!	!	!	!LO:MO:null:mod=8f]	!	!	!	!	!
1F	-i	4A/	.	.	.	.	.	4cc\	-le-
.	.	.	.	8f\	-gia	.	.	.	.
.	.	4B-\	.	4d\	co-	.	.	2b-\	.
.	.	2c\	.	2c\	-le-	.	.	.	.
.	.	.	.	.	.	.	.	4a\	.
*	*	*custos:B-	*	*custos:d	*	*	*	*	*
!	!	!LO:LB:g=original	!	!LO:LB:g=original	!	!	!	!	!
*	*	*xywh-#360:1280,3931,3354,729	*	*xywh-#56:863,3975,3462,718	*	*	*	*	*
1BB-	.	2B-\	-i	1d	-i	4r	.	1b-	-i
!	!	!	!	!	!	!	!LO:MO:mod=per	!	!
.	.	.	.	.	.	4f\	Per	.	.
.	.	4r	.	.	.	4f\	cui	.	.
!	!	!	!LO:MO:mod=per	!	!	!	!	!	!
.	.	4B-\	Per	.	.	4d\	vuol	.	.
*Xlig	*	*	*	*	*	*	*	*	*
=41-	=41-	=41-	=41-	=41-	=41-	=41-	=41-	=41-	=41-
!	!	!	!	!	!	!	!LO:MO:mod=sem-	!	!
0r	.	4B-\	cui	2r	.	4g\	se(m)-	4r	.
!	!	!	!	!	!	!	!	!	!LO:MO:mod=per
.	.	4G/	vuol	.	.	4g\	-pre_a-	4b-\	Per
!	!	!	!LO:MO:mod=sem-	!	!	!	!	!	!
.	.	4d\	se(m)-	4r	.	8f\	-mor	4b-\	cui
.	.	.	.	.	.	8e\	.	.	.
!	!	!	!	!	!LO:MO:mod=per	!	!	!	!
.	.	4d\	-pre_a-	4f\	Per	8f\	.	4a\	vuol
.	.	.	.	.	.	8g\	.	.	.
!	!	!	!	!	!	!	!	!	!LO:MO:mod=sem-
.	.	8d\	-mor	4f\	cui	4a\	.	4dd\	se(m)-
.	.	8c\	.	.	.	.	.	.	.
.	.	8B-\	.	4d\	vuol	4b-\	ch'io	4dd\	-pre_a-
.	.	8A\	.	.	.	.	.	.	.
!	!	!	!	!	!LO:MO:mod=sem-	!	!	!	!
.	.	2.G/	.	4g\	se(m)-	4b-\	par-	8dd\	-mor
.	.	.	.	.	.	.	.	8cc\	.
.	.	.	.	4g\	-pre_a-	4b-\	-li_e	8b-\	.
.	.	.	.	.	.	.	.	8a\	.
=42-	=42-	=42-	=42-	=42-	=42-	=42-	=42-	=42-	=42-
4r	.	.	.	8g\	-mor	2g\	ſcri-	2.b-\	.
.	.	.	.	8f\	.	.	.	.	.
!	!LO:MO:mod=per	!	!	!	!	!	!	!	!
4E-X\	Per	4G/	ch'io	8e-X\	.	.	.	.	.
.	.	.	.	8d\	.	.	.	.	.
!	!	!	!	!LO:SIC:s=2e-	!	!	!LO:MO:mod=-va	!	!
4E-\	cui	4G/	par-	2e-X\	.	4g\	-ua	.	.
4C/	vuol	4c\	-li_e	.	.	4g\	ch'io	4cc\	ch'io
*	*	*	*	*	*	*custos:g	*	*	*
!	!LO:MO:mod=sem-	!	!	!	!	!LO:LB:g=original	!	!	!
*	*	*	*	*	*	*xywh-#512:1162,4431,3356,821	*	*	*
4G\	se(m)-	2B-\	ſcri-	2d\	ch'io	8g\	par-	2dd\	par-
.	.	.	.	.	.	8f\	.	.	.
4G\	-pre_a-	.	.	.	.	8g\	.	.	.
.	.	.	.	.	.	8a\	.	.	.
*custos:G	*	*	*	*	*	*	*	*	*
!LO:LB:g=original	!	!	!LO:MO:mod=-va	!	!	!	!	!	!
*xywh-#208:1101,3387,3459,740	*	*	*	*	*	*	*	*	*
8G\	-mor	4B-\	-ua	2.g\	par-	8b-\	.	4dd\	-li
8F\	.	.	.	.	.	8a\	.	.	.
8E-X\	.	4B-\	ch'io	.	.	8g\	.	4ee-X\	ch'io
8D\	.	.	.	.	.	8f\	.	.	.
*	*	*	*	*	*	*	*	*custos:ee-	*
!	!	!	!	!	!	!	!	!LO:LB:g=original	!
=43-	=43-	=43-	=43-	=43-	=43-	=43-	=43-	=43-	=43-
*	*	*	*	*	*	*	*	*xywh-#664:1047,3782,3436,800	*
!	!	!	!	!	!	!	!	!LO:SIC:s=2ee-i	!
2C/	.	4c\	par-	.	.	4e-X\	.	2ee-yX\	par-
.	.	4B-\	-li_e	2g\	-li	4g\	-li_e	.	.
2D\	ch'io	2A\	ſcri-	.	.	4d\	ſcri-	4dd\	-li_e
!	!	!	!	!	!	!LO:SIC:s=8ei	!	!	!
.	.	.	.	4f\	ch'io	8e-\	.	4.dd\	ſcri-
.	.	.	.	.	.	8f\	.	.	.
!	!	!	!LO:MO:mod=-va	!	!	!	!	!	!
4.E-X\	par-	1G	-ua	4e-X\	par-	1g	.	.	.
.	.	.	.	.	.	.	.	8cc\	.
.	.	.	.	4e-\	-li_e	.	.	2cc\	.
8C/	-li_e	.	.	.	.	.	.	.	.
2G\	ſcri-	.	.	2d\	ſcri-	.	.	.	.
!	!	!	!	!	!	!	!	!LO:MO:mod=!null:null	!
!	!	!	!	!	!	!	!	!LO:N:acc=#	!
.	.	.	.	.	.	.	.	4bn\	.
=44-	=44-	=44-	=44-	=44-	=44-	=44-	=44-	=44-	=44-
!	!LO:MO:mod=-va	!	!LO:MO:mod=fer-	!	!LO:MO:mod=-va	!	!LO:MO:mod=-va	!	!LO:MO:mod=-va
2C/	-ua	1G	Fer-	2c/	-ua	2eny\	-ua	2cc\	-ua
!	!LO:MO:mod=fer-	!	!	!	!LO:MO:mod=fer-	!	!LO:MO:mod=fer-	!	!LO:MO:mod=fer-
2C/	Fer-	.	.	2c/	Fer-	2.e\	Fer-	2cc\	Fer-
!	!	!	!	!LO:MO:mod=!null:null	!	!	!	!	!
!	!	!	!	!LO:N:acc=#	!	!	!	!	!
2.AA/	-mar-	2A/	-mar-	2.en\	-mar-	.	.	2.cc#X\	-mar-
.	.	.	.	.	.	2a\	-mar-	.	.
.	.	2A/	-ſi	.	.	.	.	.	.
4AA/	-ſi	.	.	4e\	-ſi	4a\	-ſi	4cc#\	-ſi
*	*	*custos:A	*	*	*	*	*	*	*
!	!	!LO:LB:g=original	!	!	!	!	!	!	!
=45-	=45-	=45-	=45-	=45-	=45-	=45-	=45-	=45-	=45-
*	*	*xywh-#360:1302,4487,3332,696	*	*	*	*	*	*	*
2r	.	2r	.	2r	.	2r	.	2r	.
!	!LO:MO:mod=fer-	!	!LO:MO:mod=fer-	!	!LO:MO:mod=fer-	!	!LO:MO:mod=fer-	!	!LO:MO:mod=fer-
2D/	Fer-	2A/	Fer-	2d\	Fer-	2f\	Fer-	2dd\	Fer-
2.BB-/	-mar-	2B-\	-mar-	2d\	-mar-	2.f\	-mar-	2.dd\	-mar-
.	.	2B-\	-ſi	2d\	-ſi	.	.	.	.
4BB-/	-ſi	.	.	.	.	4f\	-ſi	4dd\	-ſi
*	*	*	*	*custos:C	*	*	*	*	*
!	!	!	!	!LO:LB:g=original	!	!	!	!	!
=46-	=46-	=46-	=46-	=46-	=46-	=46-	=46-	=46-	=46-
*	*	*	*	*xywh-#56:918,4530,3441,794	*	*	*	*	*
2r	.	4r	.	2r	.	2r	.	0r	.
!	!	!	!LO:MO:mod=fer-	!	!	!	!	!	!
.	.	2B-\	Fer-	.	.	.	.	.	.
!	!LO:MO:mod=fer-	!	!	!	!	!	!LO:MO:mod=fer-	!	!
2E-X\	Fer-	.	.	4r	.	2g\	Fer-	.	.
!	!	!	!	!	!LO:MO:mod=quan-	!	!	!	!
.	.	2G/	-mar-	4B-/	qua(n)-	.	.	.	.
*	*	*	*	*	*	*custos:e-	*	*	*
!	!	!	!	!	!	!LO:PB:g=original	!	!	!
*	*	*	*	*	*	*xywh-#512:4600,582,3238,727	*	*	*
2.C/	-mar-	.	.	2c/	-t'io	2e-X\	-mar-	.	.
.	.	4E-X/	-ſi_al	.	.	.	.	.	.
!	!	!	!LO:MO:mod=pian-	!	!LO:MO:mod=vor-	!	!	!	!
.	.	4F/	pia(n)-	2d\	vo-	4d\	-ſi_al	.	.
!LO:MO:mod=!null:null	!	!	!	!	!	!	!	!	!
!LO:N:acc=#	!	!	!	!	!	!	!LO:MO:mod=pian-	!	!
4BBn/	-ſi_al	4G/	-ger	.	.	2d\	pia(n)-	.	.
=47-	=47-	=47-	=47-	=47-	=47-	=47-	=47-	=47-	=47-
2C/	pian-	2.G/	mio	2e-X\	-re-	.	.	4r	.
!	!	!	!	!	!	!	!	!	!LO:MO:mod=fer-
.	.	.	.	.	.	4c/	-ger	2g/	Fer-
2C/	-ger	.	.	2e-\	-i	2c/	mio	.	.
.	.	4A/	quan-	.	.	.	.	2e-X/	-mar-
2GG/	mio	2B-\	-t'io	2r	.	1r	.	.	.
.	.	.	.	.	.	.	.	4d/	-ſi_al
!	!	!	!LO:MO:mod=vor-	!	!	!	!	!	!LO:MO:mod=pian-
2r	.	2c\	vo-	4r	.	.	.	4e-X/	pia(n)-
!	!	!	!	!	!LO:MO:mod=fer-	!	!	!	!
.	.	.	.	2g\	Fer-	.	.	4e-/	-ger
*custos:BB-	*	*	*	*	*	*	*	*	*
!LO:LB:g=original	!	!	!	!	!	!	!	!	!
=48-	=48-	=48-	=48-	=48-	=48-	=48-	=48-	=48-	=48-
*xywh-#208:1150,3970,3399,728	*	*	*	*	*	*	*	*	*
2r	.	1d	-re-	.	.	0r	.	2B-/	mio
.	.	.	.	2f\	-mar-	.	.	.	.
*	*	*	*	*	*	*	*	*	*ij
!	!	!	!	!	!	!	!	!	!LO:MO:mod=fer-
2BB-y/	quan-	.	.	.	.	.	.	2b-y\	Fer-
.	.	.	.	4d\	-ſi_al	.	.	.	.
!	!	!	!	!	!LO:MO:mod=pian-	!	!	!	!
2C/	-t'io	4c\	-i	2e-X\	pia(n)-	.	.	2.g/	-mar-
.	.	4c\	quan-	.	.	.	.	.	.
!	!LO:MO:mod=vor-	!	!	!	!	!	!	!	!
2D\	vo-	4B-\	-t'io	4d\	-ger	.	.	.	.
!	!	!	!LO:MO:mod=vor-	!	!	!	!	!	!
.	.	4A/	uo-	2d\	mio	.	.	4f#X/	-ſi_al
*	*	*	*	*	*	*	*	*custos:g	*
!	!	!	!	!	!	!	!	!LO:LB:g=original	!
=49-	=49-	=49-	=49-	=49-	=49-	=49-	=49-	=49-	=49-
*	*	*	*	*	*	*	*	*xywh-#664:1070,4323,3436,835	*
!LO:SIC:s=1E-i	!	!	!	!	!	!	!	!	!LO:MO:mod=pian-
1Eny	-re-	2.G/	-re-	.	.	1r	.	2g/	pia(n)-
.	.	.	.	8c/	.	.	.	.	.
.	.	.	.	8B-/	.	.	.	.	.
.	.	.	.	2c/	.	.	.	2g/	-ger
.	.	4A/	.	.	.	.	.	.	.
!	!	!	!	!	!LO:MO:mod=quan-	!	!	!	!
1.D	-i	4B-\	.	1d	qua(n)-	2r	.	2fny/	mio
.	.	8A/	.	.	.	.	.	.	.
.	.	8G/	.	.	.	.	.	.	.
*	*	*custos:F	*	*	*	*	*	*	*Xij
!	!	!LO:PB:g=original	!	!	!	!	!	!	!
*	*	*xywh-#360:4677,632,3364,696	*	*	*	*	*	*	*
.	.	4F/	.	.	.	2.f\	quan-	2a\	quan-
.	.	2f\	.	.	.	.	.	.	.
=50-	=50-	=50-	=50-	=50-	=50-	=50-	=50-	=50-	=50-
.	.	.	.	2d\	-t'io	.	.	2b-\	-t'io
.	.	8e\	.	.	.	4g\	-t'io	.	.
.	.	8d\	.	.	.	.	.	.	.
!	!	!	!	!	!LO:MO:mod=vor-	!	!LO:MO:mod=vor-	!	!LO:MO:mod=vor-
2AA/	quan-	4c\	.	2eny\	uo-	2a\	vo-	1ccny	vo-
.	.	4B-\	.	.	.	.	.	.	.
*	*	*	*	*lig	*	*	*	*	*
2F\	-t'io	1A	.	1f	-re-	1a	-re-	.	.
!	!LO:MO:mod=vor-	!	!	!	!	!	!	!	!
4E\	uo-	.	.	.	.	.	.	2.dd\	-re-
4D/	.	.	.	.	.	.	.	.	.
=51-	=51-	=51-	=51-	=51-	=51-	=51-	=51-	=51-	=51-
1A	-re-	1.A	-i	1e	.	1.a	-i	.	.
.	.	.	.	.	.	.	.	8cc#X\	.
!	!	!	!	!	!	!	!	!LO:SIC:s=8bi	!
.	.	.	.	.	.	.	.	8b-\	.
.	.	.	.	.	.	.	.	2cc#\	.
*	*	*	*	*Xlig	*	*	*	*	*
1D	-i	.	.	1f#X	-i	.	.	1dd	-i
.	.	2A/	quan-	.	.	2a\	quan-	.	.
=52-	=52-	=52-	=52-	=52-	=52-	=52-	=52-	=52-	=52-
!	!	!LO:MO:mod=!null:null	!	!	!	!	!	!	!
!	!	!LO:N:acc=#	!	!	!	!	!	!	!
2r	.	2Bn\	-t'io	1r	.	2g\	-t'io	2r	.
*	*ij	*	*	*	*	*	*	*	*
!	!	!	!LO:MO:mod=vor-	!	!	!	!LO:MO:mod=vor-	!	!
2AA/	quan-	2c\	vo-	.	.	1f	vo-	2ccny\	quan-
2BB-/	-t'io	2d\	-re-	2r	.	.	.	2b-\	-t'io
!	!LO:MO:mod=vor-	!	!	!	!LO:MO:mod=quan-	!	!	!	!LO:MO:mod=vor-
2C/	uo-	4c\	-i	2.c/	qua(n)-	2e-X\	-re-	2.a\	vo-
.	.	4c\	quan-	.	.	.	.	.	.
=53-	=53-	=53-	=53-	=53-	=53-	=53-	=53-	=53-	=53-
0D	-re-	2F/	-t'io	.	.	0d	.	.	.
.	.	.	.	4c/	-t'io	.	.	4g/	.
!	!	!	!LO:MO:mod=vor-	!	!LO:MO:mod=vor-	!	!	!	!
.	.	2G/	vo-	2B-/	uo-	.	.	2.g/	-re-
.	.	1A	-re-	4A/	-re-	.	.	.	.
.	.	.	.	4D/	.	.	.	8f#X/	.
.	.	.	.	.	.	.	.	8eny/	.
.	.	.	.	2d\	.	.	.	2f#X/	.
=54-	=54-	=54-	=54-	=54-	=54-	=54-	=54-	=54-	=54-
!	!LO:MO:mod=-i?	!	!LO:MO:mod=-i?	!LO:SIC:s=0Bi	!LO:MO:mod=-i?	!	!LO:MO:mod=-i?	!	!LO:MO:mod=-i?
0GGl	-i	0Gl	-i.	0B-l	-i.	0dl	-i.	0gl	-i.
==	==	==	==	==	==	==	==	==	==
*-	*-	*-	*-	*-	*-	*-	*-	*-	*-
!!!system-decoration: [(*)]
!!LO:MO:ori
!!!RDF**kern: l = terminal long
!!LO:MO:mod
!! !!!RDF**kern: i = editorial accidental
!!LO:MO:end
!!!filter-modern: shed -e "s/^custos:/Xcustos:/I" | sic -sq | autobeam | modori -m | autostem -r | tie -s | humtr -p | shed -e "s/-//B"
!!!ENC: Arkadiusz Malec
!!!END: 2022-07-09
!!!ENC: Jan Barakat
!!!END: 2022-07-28
!!!ENC-modern: Andrzej Kubiczek
!!!END-modern: 2022-07-30
!!!ENC-iiif: Zuzanna Daniec
!!!END-iiif: 2022-10-07
!!!YEC: Copyright 2022 Narodowy Instytut Fryderyka Chopina (https://polishscores.org)
!!!YEM: License CC-BY-4.0 (https://creativecommons.org/licenses/by/4.0)
